svg/ideogram_cjk_variant.svg

<svg xmlns="http://www.w3.org/2000/svg" viewBox="0 0 24 24"><path d="M11 4v2H4v2h11.36c-.23.87-.73 1.77-1.48 2.69-.53.66-1.17 1.31-1.88 1.98-.71-.67-1.35-1.32-1.88-1.98-.47-.57-.82-1.14-1.09-1.69H6.85c.36 1.05.97 2.03 1.71 2.95.57.71 1.23 1.39 1.94 2.05l-5.14 4.23 1.28 1.54L12 15.34l5.36 4.43 1.28-1.54L13.5 14c.71-.66 1.37-1.34 1.94-2.05.97-1.21 1.72-2.52 1.96-3.95H20V6h-7V4Z"/></svg>

<?xml version="1.0" encoding="UTF-8"?><!DOCTYPE svg PUBLIC "-//W3C//DTD SVG 1.1//EN" "http://www.w3.org/Graphics/SVG/1.1/DTD/svg11.dtd"><svg xmlns="http://www.w3.org/2000/svg" xmlns:xlink="http://www.w3.org/1999/xlink" version="1.1" id="mdi-ideogram-cjk-variant" width="24" height="24" viewBox="0 0 24 24"><path d="M11 4V6H4V8H15.36C15.13 8.87 14.63 9.77 13.88 10.69C13.35 11.35 12.71 12 12 12.67C11.29 12 10.65 11.35 10.12 10.69C9.65 10.12 9.3 9.55 9.03 9H6.85C7.21 10.05 7.82 11.03 8.56 11.95C9.13 12.66 9.79 13.34 10.5 14L5.36 18.23L6.64 19.77L12 15.34L17.36 19.77L18.64 18.23L13.5 14C14.21 13.34 14.87 12.66 15.44 11.95C16.41 10.74 17.16 9.43 17.4 8H20V6H13V4Z" /></svg>
